X:944060
T:Here Comes the Sun (Beatles)
H:
B:
C:Beatles
O:Kevin Fraser
Z:Kevin Fraser
Q:1/4=120
% K:HP
K:Dmaj
M:none
M:4/4
L:1/8
R:March
U:V = !accent!
V:M name="Melody" sname="Melody" gstem=up stem=down " " 
V:H name="Harmony" sname="Harmony" gstem=up stem=down " " 
V:C name="Bass" sname="Bass" gstem=up stem=down " 
V:S clef=perc name="Snare" sname="Snare" middle=G gstem=up stem=down dyn=up stafflines=1 " " " 
V:B clef=none name="Bass" sname="Bass" gstem=up stem=down dyn=up " " 
V:T clef=none name="Tenor" sname="Tenor" gstem=up stem=down dyn=up " " 
V:BB clef=bass octave=-1 transpose=-1 name="Brass Bass" sname="ABCD-C" gstem=up stem=down " " 
V:BC transpose=-1 name="Brass Chord" sname="ABCD-D" gstem=up stem=down " " 
V:BD transpose=-1 name="Brass Chord 2" sname="ABCD-B" gstem=up stem=down " " 
V:P octave=-1 name="Piano" gstem=up stem=down " 
I:MIDI=program 110
%%MIDI gracedivider 40
%%MIDI gchord 
%%MIDI beatstring 
V:Drums
V:M
%%MIDI program 110
%%MIDI vol 100
V:H
%%MIDI program 110
%%MIDI vol 100
V:C
%%MIDI program 110
%%MIDI vol 100
% %MIDI gchord on
[V:M][K:Dmaj]!mp! "D"z2 fd ef-fd- | "D"d2 fe-ed-dB | "G"Bd-de-ed-dB | "A7"cB cd-de3 | $
[V:H][K:Dmaj]!mp! X | X |X |X | $
[V:C][K:Dmaj]!mp! X | X |X |X | $
[V:M] "D"z2 fd ef-fd- | "D"d2 fe-ed-dB | "G"Bd-de-ed-dc- | "A7"c6 z2 |] $
[V:H] X | X |X |X |] $
[V:C] X | X |X |X |] $
[V:M] "D"z2 fe-ef-fd- | "D"d2 fd ef3 | "Gmaj7"z2 fe-ef-fd- | "E7/G#"d3d e2 d2 | $
[V:H] X | X |X |X | $
[V:C] X | X |X |X | $
[V:M] "D"z2 fe- ed-dA | "G"Bde"D/F#"A de"Em7"Gd |e"D"Ade "A7"dcBA | A8 |] $
[V:H] X | X |X |X |] $
[V:C] X | X |X |X |] $
[V:M][K:Dmaj] "D"z2 fd ef-fd- | "D"d2 fe-ed-dB | "G"Bd-de-ed-dB | "A7"cB cd-de3 | $
[V:H]
%%MIDI program 30
[V:H][K:Dmaj] dAa4Ad | dAa4AB | dGdG3d2 | AG AB-Bc3 | $
[V:C][K:Dmaj] d8 | d8 | G8 | A8 | $
[V:M] "D"z2 fd ef-fd- | "D"d2 fe-ed-dB | "G"Bd-de-ed-dc- | "A7"c6 z2 |] $
[V:H] dAa4Ad | dAa4AB | d4-d3 g- | g6 z2 |] $
[V:C] d8 | d8 | G4-G3 A- | A6 z2 |] $
[V:M] "D"z2 fe-ef-fd- | "D"d2 fd ef3 | "Gmaj7"z2 fe-ef-fd- | "E7/G#"d3d e2 d2 | $
[V:H] da-ag-ga-aB | dA A6| eG B4 Gd | GA/B/ de gedB | $
[V:C] A8 | A8 | G8 | G8 | $
[V:M] "D"z2 fe- ed-dA | "G"Bde"D/F#"A de"Em7"Gd |e"D"Ade "A7"dcBA|A8 |A8 |] $
[V:H] dA B3 dA2 | g2 e2 d2 d2- | d d3 A2 z2|A8 |A8 |] $
[V:C] d8 | G2-Gd-d2 e2- |ed d2 A2 A2 |A8 |A8|]$
V:Guitar
%%MIDI program 28
%%MIDI vol 100
[V:Guitar][K:Dmaj]!f![DFA]2 [DFA]2 [DFA]2 [DFA]2 | [DFA]2 [DFA]2 [DFA]2 [DFA]2 | [GBd]2 [GBd]2 [GBd]2 [GBd]2 | [Aceg]2 [Aceg]2 [Aceg]2 [Aceg]2 | 
[V:Guitar][K:Dmaj][DFA]2 [DFA]2 [DFA]2 [DFA]2 | [DFA]2 [DFA]2 [DFA]2 [DFA]2 | [GBd]2 [GBd]2 [GBd]2 [GBd]2 | [Aceg]2 [Aceg]2 [Aceg]2 [Aceg]2 |]
[V:Guitar][K:Dmaj][DFA]2 [DFA]2 [DFA]2 [DFA]2 | [DFA]2 [DFA]2 [DFA]2 [DFA]2 | [GBd]2 [GBd]2 [GBd]2 [GBd]2 | [EGB]2 [EGB]2 [EGB]2 [EGB]2  |  
[V:Guitar][K:Dmaj] [DFA]2 [DFA]2 [DFA]2 [DFA]2 | [Gd] [GB] [GBe] [^FA] de [E-G] [E | d] |[Ee][DA][Dd][De] [Ad] [Ac] [Beg] [Aceg] | [Aceg]2 [Aceg]2 [Aceg]2 [Aceg]2|]
[V:Guitar][K:Dmaj][DFA]2 [DFA]2 [DFA]2 [DFA]2 | [DFA]2 [DFA]2 [DFA]2 [DFA]2 | [GBd]2 [GBd]2 [GBd]2 [GBd]2 | [Aceg]2 [Aceg]2 [Aceg]2 [Aceg]2 | 
[V:Guitar][K:Dmaj][DFA]2 [DFA]2 [DFA]2 [DFA]2 | [DFA]2 [DFA]2 [DFA]2 [DFA]2 | [GBd]2 [GBd]2 [GBd]2 [GBd]2 | [Aceg]2 [Aceg]2 [Aceg]2 [Aceg]2 |]
[V:Guitar][K:Dmaj][DFA]2 [DFA]2 [DFA]2 [DFA]2 | [DFA]2 [DFA]2 [DFA]2 [DFA]2 | [GBd]2 [GBd]2 [GBd]2 [GBd]2 | [EGB]2 [EGB]2 [EGB]2 [EGB]2  |  
[V:Guitar][K:Dmaj] [DFA]2 [DFA]2 [DFA]2 [DFA]2 | [GBd]3 ^F3 E2- |ED3 [Aceg]2 [Aceg]2 | [Aceg]2 [Aceg]2 [Aceg]2 [Aceg]2 |  [Aceg]8|]$
V:BassG
% %MIDI channel 4
%%MIDI program 20
%%MIDI vol 100
[V:BassG][K:Dmaj]!fff! D2 D2 D2 D2 | D2 D2 D2 D2  | G2 G2 G2 G2 | A2 A2 A2 A2 | $
[V:BassG] D2 D2 D2 D2 | D2 D2 D2 D2  | G2 G2 G2 A2 | A2 A2 A2 A2 |] $
[V:BassG] D2 D2 D2 D2 | D2 D2 D2 D2  | G2 G2 G2 G2 | ^G2 G2 G2 G2 | $
[V:BassG] d8 | G3 ^F3 E2- |ED3 A2 A2 | A2 A2 A2 A2|]
[V:BassG][K:Dmaj] D2 D2 D2 D2 | D2 D2 D2 D2  | G2 G2 G2 G2 | A2 A2 A2 A2 | $
[V:BassG] D2 D2 D2 D2 | D2 D2 D2 D2  | G2 G2 G2 A2 | A2 A2 A2 A2 |] $
[V:BassG] D2 D2 D2 D2 | D2 D2 D2 D2  | G2 G2 G2 G2 | ^G2 G2 G2 G2 | $
[V:BassG] d8 | G3 ^F3 E2- |ED3 A2 A2 |A2 A2 A2 A2 | A8 |]$
V:Drums 
% %MIDI program 14
%Midi Channel 10/11 designated for DRUMS
% 35 - Acoustic Bass    B0
% 38 - Acoustic Snare   D1
% 39 - Hand Clap        Eb1
% 41 - Floor Tom        F1
% 42 - Closed High hat  F#1
% 43 - High floor tom   G1
% 44 - Pedal High hat   Ab1
% 45 - Low Tom          A1
% 46 - Open hi hat      Bb1
% 47 - Low-mid tom      B1
% 48 - High-mid tom     C2
% 49 - Crash            C#2
% 50 - High Tom         D2
% 51 - Ride             D#2
% 53 - Ride Bell        F2
% 55 - Splash           G2
% 57 - Crash 2          A2
% 59 - Ride 2           B2
% 81 - Triangle         A4
L:1/8
[V:Drums] [| [^gF]^g  [^gc]^g [^gF]^g  [^gc]^g| [^gF]^g  [^gc]^g [^gF]^g  [^gc]^g | [^gF]^g  [^gc]^g [^gF]^g  [^gc]^g | [^gF]^g  [^gc]^g [^gF]^g  [^gc]^g |
[V:Drums]    [^gF]^g  [^gc]^g [^gF]^g  [^gc]^g | [^gF]^g  [^gc]^g [^gF]^g  [^gc]^g | [^gF]^g  [^gc]^g [^gF]^g  [^gc]^g | [^gF]^g  [^gc]^g [^gF]^g  [^gc]^g |]
[V:Drums] [| [^gF]^g  [^gc]^g [^gF]^g  [^gc]^g | [^gF]^g  [^gc]^g [^gF]^g  [^gc]^g | [^gF]^g  [^gc]^g [^gF]^g  [^gc]^g | [^gF]^g  [^gc]^g [^gF]^g  [^gc]^g |
[V:Drums]    [^gF]^g  [^gc]^g [^gF]^g  [^gc]^g | [^gF]^g  [^gc]^g [^gF]^g  [^gc]^g | [^gF]^g  [^gc]^g [^gF]^g  [^gc]^g | [^gFc]^g  [^gc]^g [^gFB][^gB]  [^gcC][^gC] |]
[V:Drums] [| [^gF]^g  [^gc]^g [^gF]^g  [^gc]^g| [^gF]^g  [^gc]^g [^gF]^g  [^gc]^g | [^gF]^g  [^gc]^g [^gF]^g  [^gc]^g | [^gF]^g  [^gc]^g [^gF]^g  [^gc]^g |
[V:Drums]    [^gF]^g  [^gc]^g [^gF]^g  [^gc]^g | [^gF]^g  [^gc]^g [^gF]^g  [^gc]^g | [^gF]^g  [^gc]^g [^gF]^g  [^gc]^g | [^gF]^g  [^gc]^g [^gF]^g  [^gc]^g |]
[V:Drums] [| [^gF]^g  [^gc]^g [^gF]^g  [^gc]^g | [^gF]^g  [^gc]^g [^gF]^g  [^gc]^g | [^gF]^g  [^gc]^g [^gF]^g  [^gc]^g | [^gF]^g  [^gc]^g [^gF]^g  [^gc]^g |
[V:Drums]    [^gF]^g  [^gc]^g [^gF]^g  [^gc]^g | [^gF]^g  [^gc]^g [^gF]^g  [^gc]^g | [^gF]^g  [^gc]^g [^gF]^g  [^gc]^g | [^gFd][^g_c]  [^gcd][^g_c] [^gdF][^g_c]  [^gcd][^g_c] | [c']8 |]

